cached_logos/dispatch.svg

<svg viewBox="-8.10 -8.10 421.20 131.20" xmlns="http://www.w3.org/2000/svg"><title>Dispatch</title><g fill="none" fill-rule="evenodd"><path fill="#FFFFFE" d="M24.6 63.197l7.311-9.154a3.979 3.979 0 0 1 3.115-1.494l11.801.028a3.96 3.96 0 0 1 1.53.309c.553.266 1.319.874 1.704 1.352l1.978 2.46-7.834 6.412a5.874 5.874 0 0 0-3.181-.934 5.907 5.907 0 1 0 0 11.814c.286 0 .564-.028.837-.067l4.919 9.97-4.025 1.922a3.956 3.956 0 0 1-3.43-.006l-.004-.002-10.657-5.12-.004-.001a3.954 3.954 0 0 1-2.146-2.673L23.84 66.554a3.948 3.948 0 0 1 .76-3.357zm26.166-13.953l2.625-11.418a3.97 3.97 0 0 1 2.16-2.696l3.422-1.635 4.494 8.635a5.882 5.882 0 0 0-1.286 6.268l-8.458 6.922-2.189-2.722a3.947 3.947 0 0 1-.768-3.354zm15.432-19.201a3.96 3.96 0 0 1 1.514-.384c.613 0 1.567.216 2.12.48l10.451 4.99a3.966 3.966 0 0 1 2.155 2.687l2.629 11.422a3.942 3.942 0 0 1-.77 3.358l-7.37 9.169a3.957 3.957 0 0 1-3.095 1.48h-.004l-11.822.002h-.005a3.955 3.955 0 0 1-3.093-1.479l-2.886-3.591 8.481-6.942a5.874 5.874 0 0 0 3.181.934 5.907 5.907 0 1 0 0-11.814c-.329 0-.65.034-.964.086l-4.439-8.527 3.917-1.871zm-8.102 36.574l-2.577 11.434a3.947 3.947 0 0 1-2.149 2.693l-3.281 1.568-4.937-10.007a5.888 5.888 0 0 0 1.375-6.358l7.81-6.392 2.981 3.707a3.965 3.965 0 0 1 .778 3.355zM9.914 57.686c0 10.313 3.663 19.787 9.753 27.191a43.247 43.247 0 0 0 8.678 8.001A42.829 42.829 0 0 0 39.6 98.475l1.92-8.354a3.976 3.976 0 0 1 2.161-2.697l3.918-1.872 4.743 9.613a5.892 5.892 0 0 0-2.202 4.597c0 .24.018.476.047.709a5.903 5.903 0 0 0 11.766-.709c0-.066-.007-.129-.01-.194a5.901 5.901 0 0 0-5.896-5.714c-.087 0-.172.01-.258.014l-4.882-9.896 3.421-1.635a3.96 3.96 0 0 1 1.514-.383c.613 0 1.567.215 2.12.48l10.451 4.989a3.964 3.964 0 0 1 2.154 2.687l1.363 5.92c11.47-5.752 20.021-16.495 22.775-29.368.592-2.764.914-5.624.942-8.555.001-.141.011-.28.011-.421 0-18.054-11.22-33.534-27.051-39.843l-1.83 8.117a3.941 3.941 0 0 1-2.148 2.693l-3.238 1.548-4.884-9.383a5.885 5.885 0 0 0 1.628-4.065c0-.554-.082-1.089-.225-1.597a5.905 5.905 0 0 0-5.682-4.309 5.904 5.904 0 0 0-5.721 4.457 5.92 5.92 0 0 0-.187 1.449 5.907 5.907 0 0 0 5.908 5.907c.36 0 .711-.037 1.053-.099l4.799 9.221-4.065 1.943a3.961 3.961 0 0 1-3.431-.007l-.003-.002-10.657-5.119-.004-.002a3.953 3.953 0 0 1-2.147-2.673l-1.788-7.659C20.674 24.809 9.914 40.009 9.914 57.686z"/><path fill="#666665" d="M104.313 47.327c-4.038-20.113-19.592-36.106-39.464-40.793l3.728 4.637a3.962 3.962 0 0 1 .778 3.355l-.748 3.317c15.831 6.309 27.051 21.789 27.051 39.843 0 .141-.01.28-.011.421a42.759 42.759 0 0 1-.942 8.555C91.951 79.535 83.4 90.278 71.93 96.03l1.267 5.503c.026.109.022.22.037.33a3.93 3.93 0 0 1-.806 3.028l-1.794 2.231c19.868-7.199 34.192-26.06 34.679-48.271.009-.389.03-.774.03-1.165 0-3.545-.358-7.008-1.03-10.359m-64.88 57.245c-.03-.045-.046-.097-.074-.143a3.95 3.95 0 0 1-.464-2.891l.705-3.063a42.829 42.829 0 0 1-11.255-5.597 43.247 43.247 0 0 1-8.678-8.001c-6.09-7.404-9.753-16.878-9.753-27.191 0-17.677 10.76-32.877 26.071-39.423l-.886-3.8a3.954 3.954 0 0 1 .76-3.357l3.329-4.168a51.91 51.91 0 0 0-3.42 1.035C15.118 15.062.23 34.662.23 57.686a52.238 52.238 0 0 0 7.572 27.151 52.875 52.875 0 0 0 5.942 7.991c7.603 8.438 17.898 14.394 29.513 16.532l-3.593-4.467a4.055 4.055 0 0 1-.231-.321"/><path fill="#1F89BE" d="M73.234 101.863c-.015-.11-.011-.221-.037-.33l-2.63-11.423a3.964 3.964 0 0 0-2.154-2.687l-10.451-4.989c-.553-.265-1.507-.48-2.12-.48a3.96 3.96 0 0 0-1.514.383l-3.421 1.635 4.882 9.896c.086-.004.171-.014.258-.014a5.901 5.901 0 0 1 5.896 5.714c.003.065.01.128.01.194a5.903 5.903 0 1 1-11.766.709 5.73 5.73 0 0 1-.047-.709c0-1.859.86-3.514 2.202-4.597l-4.743-9.613-3.918 1.872a3.976 3.976 0 0 0-2.161 2.697l-2.625 11.417a3.95 3.95 0 0 0 .464 2.891c.028.046.044.098.074.143.069.107.144.211.231.321l7.375 9.169a3.95 3.95 0 0 0 3.092 1.479h.004l11.823-.002h.004a3.956 3.956 0 0 0 3.095-1.479l7.371-9.169a3.93 3.93 0 0 0 .806-3.028"/><path fill="#67AB44" d="M41.024 73.99a5.908 5.908 0 0 1 0-11.814c1.172 0 2.262.345 3.181.934l7.834-6.412-1.978-2.46c-.385-.478-1.151-1.086-1.704-1.352a3.96 3.96 0 0 0-1.53-.309l-11.801-.028a3.979 3.979 0 0 0-3.115 1.494L24.6 63.197a3.948 3.948 0 0 0-.76 3.357l2.674 11.459a3.954 3.954 0 0 0 2.15 2.674l10.657 5.12.004.002a3.956 3.956 0 0 0 3.43.006l4.025-1.922-4.919-9.97a5.895 5.895 0 0 1-.837.067"/><path fill="#67AB44" d="M57.318 63.262l-2.981-3.707-7.81 6.392a5.874 5.874 0 0 1-1.375 6.358l4.937 10.007 3.281-1.568a3.947 3.947 0 0 0 2.149-2.693l2.577-11.434a3.965 3.965 0 0 0-.778-3.355"/><path fill="#253863" d="M85.067 49.238l-2.629-11.422a3.966 3.966 0 0 0-2.155-2.687l-10.451-4.99c-.553-.264-1.507-.48-2.12-.48a3.96 3.96 0 0 0-1.514.384l-3.917 1.871 4.439 8.527c.314-.052.635-.086.964-.086a5.908 5.908 0 0 1 0 11.814 5.874 5.874 0 0 1-3.181-.934l-8.481 6.942 2.886 3.591a3.955 3.955 0 0 0 3.093 1.479h.005l11.822-.002h.004a3.957 3.957 0 0 0 3.095-1.48l7.37-9.169a3.942 3.942 0 0 0 .77-3.358"/><path fill="#253863" d="M61.776 46.263c0-1.61.646-3.068 1.691-4.133l-4.494-8.635-3.422 1.635a3.97 3.97 0 0 0-2.16 2.696l-2.625 11.418a3.947 3.947 0 0 0 .768 3.354l2.189 2.722 8.458-6.922a5.891 5.891 0 0 1-.405-2.135"/><path fill="#A3C93C" d="M68.577 11.171l-7.258-9.024c-.383-.478-1.15-1.086-1.703-1.352a3.964 3.964 0 0 0-1.53-.309L46.285.458a3.978 3.978 0 0 0-3.115 1.495l-7.311 9.153a3.954 3.954 0 0 0-.76 3.357l2.674 11.459a3.953 3.953 0 0 0 2.147 2.673l.004.002 10.657 5.119.003.002a3.961 3.961 0 0 0 3.431.007l4.065-1.943-4.799-9.221a5.892 5.892 0 0 1-1.053.099 5.907 5.907 0 0 1-5.908-5.907c0-.501.07-.984.187-1.449a5.904 5.904 0 0 1 5.721-4.457 5.905 5.905 0 0 1 5.682 4.309c.143.508.225 1.043.225 1.597a5.885 5.885 0 0 1-1.628 4.065l4.884 9.383 3.238-1.548a3.941 3.941 0 0 0 2.148-2.693l2.578-11.434a3.962 3.962 0 0 0-.778-3.355"/><path fill="#666665" d="M139.486 74.728c10.598 0 17.365-7.185 17.365-16.465v-.12c0-9.281-6.767-16.586-17.365-16.586h-9.819v33.171h9.819zm-14.549-35.147c0-1.317 1.078-2.394 2.334-2.394h12.215c13.173 0 22.274 9.041 22.274 20.836v.12c0 11.795-9.101 20.956-22.274 20.956h-12.215c-1.256 0-2.334-1.077-2.334-2.394V39.581zm45.329-.299c0-1.317 1.078-2.395 2.335-2.395a2.402 2.402 0 0 1 2.395 2.395v37.721a2.403 2.403 0 0 1-2.395 2.396c-1.257 0-2.335-1.078-2.335-2.396V39.282m13.591 34.788c-.539-.36-.898-1.018-.898-1.796 0-1.318 1.019-2.336 2.275-2.336.599 0 1.138.24 1.438.539 3.951 3.354 7.903 4.97 13.232 4.97 5.628 0 9.341-2.993 9.341-7.125v-.12c0-3.892-2.096-6.107-10.897-7.963-9.641-2.096-14.072-5.209-14.072-12.095v-.12c0-6.586 5.809-11.437 13.772-11.437 5.509 0 9.52 1.378 13.352 4.132.479.36 1.018 1.018 1.018 1.916a2.275 2.275 0 0 1-2.275 2.276c-.539 0-.958-.121-1.377-.419-3.533-2.576-6.946-3.653-10.837-3.653-5.45 0-8.922 2.993-8.922 6.766v.12c0 3.951 2.155 6.167 11.376 8.143 9.341 2.036 13.652 5.448 13.652 11.855v.12c0 7.185-5.988 11.855-14.31 11.855-6.108 0-11.197-1.916-15.868-5.628m52.993-14.071c6.945 0 11.496-3.712 11.496-9.221v-.119c0-5.988-4.492-9.102-11.257-9.102h-10.598v18.442h10.359zm-15.089-20.418c0-1.317 1.078-2.394 2.335-2.394h13.352c9.46 0 15.688 5.029 15.688 13.292v.12c0 9.041-7.545 13.711-16.466 13.711h-10.179v12.693a2.403 2.403 0 0 1-2.395 2.396c-1.257 0-2.335-1.078-2.335-2.396V39.581zm61.256 24.13l-9.64-21.435-9.64 21.435h19.28zm-29.639 12.275l17.005-37.183c.598-1.317 1.497-2.096 2.994-2.096h.239c1.438 0 2.396.779 2.934 2.096l17.005 37.123c.179.419.299.838.299 1.198a2.274 2.274 0 0 1-2.275 2.275c-1.138 0-1.916-.778-2.335-1.736l-4.371-9.641h-22.992l-4.371 9.76c-.419 1.018-1.197 1.617-2.276 1.617a2.146 2.146 0 0 1-2.155-2.155c0-.36.06-.779.299-1.258zm53.532-34.429h-12.155c-1.197 0-2.215-.958-2.215-2.155 0-1.197 1.018-2.215 2.215-2.215h29.099c1.198 0 2.216 1.018 2.216 2.215 0 1.197-1.018 2.155-2.216 2.155H311.7v35.446a2.403 2.403 0 0 1-2.395 2.396 2.402 2.402 0 0 1-2.395-2.396V41.557m21.078 16.706v-.12c0-11.855 8.863-21.675 21.197-21.675 6.765 0 11.077 2.215 14.968 5.448.479.419.958 1.079.958 1.916 0 1.258-1.137 2.335-2.395 2.335-.658 0-1.197-.298-1.557-.538-3.232-2.874-6.886-4.79-12.034-4.79-9.281 0-16.227 7.544-16.227 17.184v.12c0 9.7 7.005 17.304 16.227 17.304 5.209 0 8.861-1.796 12.454-5.089.359-.36.898-.659 1.496-.659 1.198 0 2.276 1.078 2.276 2.275 0 .719-.36 1.317-.779 1.677-4.131 3.772-8.681 6.167-15.567 6.167-12.095 0-21.017-9.521-21.017-21.555m44.132-18.981c0-1.317 1.078-2.395 2.335-2.395a2.403 2.403 0 0 1 2.396 2.395v16.526h24.189V39.282a2.402 2.402 0 0 1 2.395-2.395c1.257 0 2.336 1.078 2.336 2.395v37.721c0 1.318-1.079 2.396-2.336 2.396a2.403 2.403 0 0 1-2.395-2.396V60.239h-24.189v16.764a2.403 2.403 0 0 1-2.396 2.396c-1.257 0-2.335-1.078-2.335-2.396V39.282"/></g></svg>

<?xml version="1.0" encoding="UTF-8"?>
<svg   viewBox="-8.120000000000005 -2.319999999999993 422.24 120.64" version="1.1" xmlns="http://www.w3.org/2000/svg" xmlns:xlink="http://www.w3.org/1999/xlink">
    <!-- Generator: Sketch 49 (51002) - http://www.bohemiancoding.com/sketch -->
    <title>Group</title>
    <desc>Created with Sketch.</desc>
    <defs></defs>
    <g id="Page-1" stroke="none" stroke-width="1" fill="none" fill-rule="evenodd">
        <g id="Group">
            <path d="M24.6,63.197 L31.911,54.043 C32.668,53.097 33.815,52.546 35.026,52.549 L46.827,52.577 C47.355,52.578 47.87,52.682 48.357,52.886 C48.91,53.152 49.676,53.76 50.061,54.238 L52.039,56.698 L44.205,63.11 C43.286,62.521 42.196,62.176 41.024,62.176 C37.762,62.176 35.117,64.82 35.117,68.082 C35.117,71.345 37.762,73.99 41.024,73.99 C41.31,73.99 41.588,73.962 41.861,73.923 L46.78,83.893 L42.755,85.815 C41.664,86.335 40.414,86.332 39.325,85.809 C39.324,85.808 39.322,85.808 39.321,85.807 L28.664,80.687 C28.663,80.687 28.661,80.687 28.66,80.686 C27.572,80.163 26.789,79.188 26.514,78.013 L23.84,66.554 C23.809,66.417 23.786,66.29 23.771,66.164 C23.631,65.115 23.934,64.03 24.6,63.197 Z M50.766,49.244 L53.391,37.826 C53.662,36.645 54.457,35.652 55.551,35.13 L58.973,33.495 L63.467,42.13 C62.422,43.195 61.776,44.653 61.776,46.263 C61.776,47.017 61.924,47.735 62.181,48.398 L53.723,55.32 L51.534,52.598 C51.447,52.488 51.372,52.384 51.303,52.277 C50.724,51.392 50.525,50.283 50.766,49.244 Z M66.198,30.043 C66.675,29.815 67.184,29.686 67.712,29.659 C68.325,29.659 69.279,29.875 69.832,30.139 L80.283,35.129 C81.373,35.649 82.166,36.639 82.438,37.816 L85.067,49.238 C85.339,50.416 85.055,51.654 84.297,52.596 L76.927,61.765 C76.168,62.706 75.041,63.245 73.832,63.245 C73.831,63.245 73.83,63.245 73.828,63.245 L62.006,63.247 C62.004,63.247 62.002,63.247 62.001,63.247 C60.793,63.247 59.666,62.708 58.908,61.768 L56.022,58.177 L64.503,51.235 C65.422,51.824 66.512,52.169 67.684,52.169 C70.946,52.169 73.591,49.525 73.591,46.263 C73.591,43 70.946,40.355 67.684,40.355 C67.355,40.355 67.034,40.389 66.72,40.441 L62.281,31.914 L66.198,30.043 Z M58.096,66.617 L55.519,78.051 C55.253,79.23 54.461,80.223 53.37,80.744 L50.089,82.312 L45.152,72.305 C46.249,71.232 46.932,69.738 46.932,68.082 C46.932,67.329 46.785,66.61 46.527,65.947 L54.337,59.555 L57.318,63.262 C58.075,64.203 58.361,65.438 58.096,66.617 Z M9.914,57.686 C9.914,67.999 13.577,77.473 19.667,84.877 C22.175,87.926 25.1,90.617 28.345,92.878 C31.768,95.263 35.554,97.161 39.6,98.475 L41.52,90.121 C41.792,88.939 42.587,87.947 43.681,87.424 L47.599,85.552 L52.342,95.165 C51,96.248 50.14,97.903 50.14,99.762 C50.14,100.002 50.158,100.238 50.187,100.471 C50.537,103.398 53.025,105.668 56.047,105.668 C59.309,105.668 61.953,103.024 61.953,99.762 C61.953,99.696 61.946,99.633 61.943,99.568 C61.841,96.396 59.244,93.854 56.047,93.854 C55.96,93.854 55.875,93.864 55.789,93.868 L50.907,83.972 L54.328,82.337 C54.805,82.11 55.314,81.98 55.842,81.954 C56.455,81.954 57.409,82.169 57.962,82.434 L68.413,87.423 C69.503,87.944 70.296,88.933 70.567,90.11 L71.93,96.03 C83.4,90.278 91.951,79.535 94.705,66.662 C95.297,63.898 95.619,61.038 95.647,58.107 C95.648,57.966 95.658,57.827 95.658,57.686 C95.658,39.632 84.438,24.152 68.607,17.843 L66.777,25.96 C66.512,27.14 65.72,28.132 64.629,28.653 L61.391,30.201 L56.507,20.818 C57.513,19.758 58.135,18.33 58.135,16.753 C58.135,16.199 58.053,15.664 57.91,15.156 C57.212,12.671 54.936,10.847 52.228,10.847 C49.466,10.847 47.154,12.744 46.507,15.304 C46.39,15.769 46.32,16.252 46.32,16.753 C46.32,20.016 48.965,22.66 52.228,22.66 C52.588,22.66 52.939,22.623 53.281,22.561 L58.08,31.782 L54.015,33.725 C52.923,34.244 51.674,34.241 50.584,33.718 C50.583,33.717 50.582,33.717 50.581,33.716 L39.924,28.597 C39.922,28.596 39.921,28.596 39.92,28.595 C38.831,28.072 38.049,27.098 37.773,25.922 L35.985,18.263 C20.674,24.809 9.914,40.009 9.914,57.686 Z" id="Fill-1" fill="#FFFFFE"></path>
            <path d="M104.313,47.327 C100.275,27.214 84.721,11.221 64.849,6.534 L68.577,11.171 C69.334,12.112 69.621,13.348 69.355,14.526 L68.607,17.843 C84.438,24.152 95.658,39.632 95.658,57.686 C95.658,57.827 95.648,57.966 95.647,58.107 C95.619,61.038 95.297,63.898 94.705,66.662 C91.951,79.535 83.4,90.278 71.93,96.03 L73.197,101.533 C73.223,101.642 73.219,101.753 73.234,101.863 C73.388,102.939 73.114,104.036 72.428,104.891 L70.634,107.122 C90.502,99.923 104.826,81.062 105.313,58.851 C105.322,58.462 105.343,58.077 105.343,57.686 C105.343,54.141 104.985,50.678 104.313,47.327" id="Fill-2" fill="#666665"></path>
            <path d="M39.433,104.572 C39.403,104.527 39.387,104.475 39.359,104.429 C38.846,103.567 38.668,102.524 38.895,101.538 L39.6,98.475 C35.554,97.161 31.768,95.263 28.345,92.878 C25.1,90.617 22.175,87.926 19.667,84.877 C13.577,77.473 9.914,67.999 9.914,57.686 C9.914,40.009 20.674,24.809 35.985,18.263 L35.099,14.463 C35.067,14.326 35.045,14.2 35.029,14.074 C34.891,13.024 35.192,11.939 35.859,11.106 L39.188,6.938 C38.033,7.248 36.891,7.587 35.768,7.973 C15.118,15.062 0.23,34.662 0.23,57.686 C0.23,67.614 2.998,76.907 7.802,84.837 C9.53,87.689 11.523,90.363 13.744,92.828 C21.347,101.266 31.642,107.222 43.257,109.36 L39.664,104.893 C39.577,104.783 39.502,104.679 39.433,104.572" id="Fill-3" fill="#666665"></path>
            <path d="M73.234,101.863 C73.219,101.753 73.223,101.642 73.197,101.533 L70.567,90.11 C70.296,88.933 69.503,87.944 68.413,87.423 L57.962,82.434 C57.409,82.169 56.455,81.954 55.842,81.954 C55.314,81.98 54.805,82.11 54.328,82.337 L50.907,83.972 L55.789,93.868 C55.875,93.864 55.96,93.854 56.047,93.854 C59.244,93.854 61.841,96.396 61.943,99.568 C61.946,99.633 61.953,99.696 61.953,99.762 C61.953,103.024 59.309,105.668 56.047,105.668 C53.025,105.668 50.537,103.398 50.187,100.471 C50.158,100.238 50.14,100.002 50.14,99.762 C50.14,97.903 51,96.248 52.342,95.165 L47.599,85.552 L43.681,87.424 C42.587,87.947 41.792,88.939 41.52,90.121 L38.895,101.538 C38.668,102.524 38.846,103.567 39.359,104.429 C39.387,104.475 39.403,104.527 39.433,104.572 C39.502,104.679 39.577,104.783 39.664,104.893 L47.039,114.062 C47.796,115.003 48.924,115.541 50.131,115.541 C50.132,115.541 50.134,115.541 50.135,115.541 L61.958,115.539 C61.96,115.539 61.961,115.539 61.962,115.539 C63.171,115.539 64.298,115.001 65.057,114.06 L72.428,104.891 C73.114,104.036 73.388,102.939 73.234,101.863" id="Fill-4" fill="#1F89BE"></path>
            <path d="M41.024,73.99 C37.762,73.99 35.117,71.345 35.117,68.082 C35.117,64.82 37.762,62.176 41.024,62.176 C42.196,62.176 43.286,62.521 44.205,63.11 L52.039,56.698 L50.061,54.238 C49.676,53.76 48.91,53.152 48.357,52.886 C47.87,52.682 47.355,52.578 46.827,52.577 L35.026,52.549 C33.815,52.546 32.668,53.097 31.911,54.043 L24.6,63.197 C23.934,64.03 23.631,65.115 23.771,66.164 C23.786,66.29 23.809,66.417 23.84,66.554 L26.514,78.013 C26.789,79.188 27.572,80.163 28.66,80.686 C28.661,80.687 28.663,80.687 28.664,80.687 L39.321,85.807 C39.322,85.808 39.324,85.808 39.325,85.809 C40.414,86.332 41.664,86.335 42.755,85.815 L46.78,83.893 L41.861,73.923 C41.588,73.962 41.31,73.99 41.024,73.99" id="Fill-5" fill="#67AB44"></path>
            <path d="M57.318,63.262 L54.337,59.555 L46.527,65.947 C46.785,66.61 46.932,67.329 46.932,68.082 C46.932,69.738 46.249,71.232 45.152,72.305 L50.089,82.312 L53.37,80.744 C54.461,80.223 55.253,79.23 55.519,78.051 L58.096,66.617 C58.361,65.438 58.075,64.203 57.318,63.262" id="Fill-6" fill="#67AB44"></path>
            <path d="M85.067,49.238 L82.438,37.816 C82.166,36.639 81.373,35.649 80.283,35.129 L69.832,30.139 C69.279,29.875 68.325,29.659 67.712,29.659 C67.184,29.686 66.675,29.815 66.198,30.043 L62.281,31.914 L66.72,40.441 C67.034,40.389 67.355,40.355 67.684,40.355 C70.946,40.355 73.591,43 73.591,46.263 C73.591,49.525 70.946,52.169 67.684,52.169 C66.512,52.169 65.422,51.824 64.503,51.235 L56.022,58.177 L58.908,61.768 C59.666,62.708 60.793,63.247 62.001,63.247 C62.002,63.247 62.004,63.247 62.006,63.247 L73.828,63.245 C73.83,63.245 73.831,63.245 73.832,63.245 C75.041,63.245 76.168,62.706 76.927,61.765 L84.297,52.596 C85.055,51.654 85.339,50.416 85.067,49.238" id="Fill-7" fill="#253863"></path>
            <path d="M61.776,46.263 C61.776,44.653 62.422,43.195 63.467,42.13 L58.973,33.495 L55.551,35.13 C54.457,35.652 53.662,36.645 53.391,37.826 L50.766,49.244 C50.525,50.283 50.724,51.392 51.303,52.277 C51.372,52.384 51.447,52.488 51.534,52.598 L53.723,55.32 L62.181,48.398 C61.924,47.735 61.776,47.017 61.776,46.263" id="Fill-8" fill="#253863"></path>
            <path d="M68.577,11.171 L61.319,2.147 C60.936,1.669 60.169,1.061 59.616,0.795 C59.129,0.591 58.613,0.487 58.086,0.486 L46.285,0.458 C45.073,0.456 43.927,1.006 43.17,1.953 L35.859,11.106 C35.192,11.939 34.891,13.024 35.029,14.074 C35.045,14.2 35.067,14.326 35.099,14.463 L37.773,25.922 C38.049,27.098 38.831,28.072 39.92,28.595 C39.921,28.596 39.922,28.596 39.924,28.597 L50.581,33.716 C50.582,33.717 50.583,33.717 50.584,33.718 C51.674,34.241 52.923,34.244 54.015,33.725 L58.08,31.782 L53.281,22.561 C52.939,22.623 52.588,22.66 52.228,22.66 C48.965,22.66 46.32,20.016 46.32,16.753 C46.32,16.252 46.39,15.769 46.507,15.304 C47.154,12.744 49.466,10.847 52.228,10.847 C54.936,10.847 57.212,12.671 57.91,15.156 C58.053,15.664 58.135,16.199 58.135,16.753 C58.135,18.33 57.513,19.758 56.507,20.818 L61.391,30.201 L64.629,28.653 C65.72,28.132 66.512,27.14 66.777,25.96 L69.355,14.526 C69.621,13.348 69.334,12.112 68.577,11.171" id="Fill-9" fill="#A3C93C"></path>
            <path d="M139.486,74.728 C150.084,74.728 156.851,67.543 156.851,58.263 L156.851,58.143 C156.851,48.862 150.084,41.557 139.486,41.557 L129.667,41.557 L129.667,74.728 L139.486,74.728 Z M124.937,39.581 C124.937,38.264 126.015,37.187 127.271,37.187 L139.486,37.187 C152.659,37.187 161.76,46.228 161.76,58.023 L161.76,58.143 C161.76,69.938 152.659,79.099 139.486,79.099 L127.271,79.099 C126.015,79.099 124.937,78.022 124.937,76.705 L124.937,39.581 Z" id="Fill-10" fill="#666665"></path>
            <path d="M170.266,39.282 C170.266,37.965 171.344,36.887 172.601,36.887 C173.918,36.887 174.996,37.965 174.996,39.282 L174.996,77.003 C174.996,78.321 173.918,79.399 172.601,79.399 C171.344,79.399 170.266,78.321 170.266,77.003 L170.266,39.282" id="Fill-11" fill="#666665"></path>
            <path d="M183.857,74.07 C183.318,73.71 182.959,73.052 182.959,72.274 C182.959,70.956 183.978,69.938 185.234,69.938 C185.833,69.938 186.372,70.178 186.672,70.477 C190.623,73.831 194.575,75.447 199.904,75.447 C205.532,75.447 209.245,72.454 209.245,68.322 L209.245,68.202 C209.245,64.31 207.149,62.095 198.348,60.239 C188.707,58.143 184.276,55.03 184.276,48.144 L184.276,48.024 C184.276,41.438 190.085,36.587 198.048,36.587 C203.557,36.587 207.568,37.965 211.4,40.719 C211.879,41.079 212.418,41.737 212.418,42.635 C212.418,43.893 211.4,44.911 210.143,44.911 C209.604,44.911 209.185,44.79 208.766,44.492 C205.233,41.916 201.82,40.839 197.929,40.839 C192.479,40.839 189.007,43.832 189.007,47.605 L189.007,47.725 C189.007,51.676 191.162,53.892 200.383,55.868 C209.724,57.904 214.035,61.316 214.035,67.723 L214.035,67.843 C214.035,75.028 208.047,79.698 199.725,79.698 C193.617,79.698 188.528,77.782 183.857,74.07" id="Fill-12" fill="#666665"></path>
            <path d="M236.85,59.999 C243.795,59.999 248.346,56.287 248.346,50.778 L248.346,50.659 C248.346,44.671 243.854,41.557 237.089,41.557 L226.491,41.557 L226.491,59.999 L236.85,59.999 Z M221.761,39.581 C221.761,38.264 222.839,37.187 224.096,37.187 L237.448,37.187 C246.908,37.187 253.136,42.216 253.136,50.479 L253.136,50.599 C253.136,59.64 245.591,64.31 236.67,64.31 L226.491,64.31 L226.491,77.003 C226.491,78.321 225.413,79.399 224.096,79.399 C222.839,79.399 221.761,78.321 221.761,77.003 L221.761,39.581 Z" id="Fill-13" fill="#666665"></path>
            <path d="M283.017,63.711 L273.377,42.276 L263.737,63.711 L283.017,63.711 Z M253.378,75.986 L270.383,38.803 C270.981,37.486 271.88,36.707 273.377,36.707 L273.616,36.707 C275.054,36.707 276.012,37.486 276.55,38.803 L293.555,75.926 C293.734,76.345 293.854,76.764 293.854,77.124 C293.854,78.381 292.836,79.399 291.579,79.399 C290.441,79.399 289.663,78.621 289.244,77.663 L284.873,68.022 L261.881,68.022 L257.51,77.782 C257.091,78.8 256.313,79.399 255.234,79.399 C254.037,79.399 253.079,78.441 253.079,77.244 C253.079,76.884 253.139,76.465 253.378,75.986 Z" id="Fill-14" fill="#666665"></path>
            <path d="M306.91,41.557 L294.755,41.557 C293.558,41.557 292.54,40.599 292.54,39.402 C292.54,38.205 293.558,37.187 294.755,37.187 L323.854,37.187 C325.052,37.187 326.07,38.205 326.07,39.402 C326.07,40.599 325.052,41.557 323.854,41.557 L311.7,41.557 L311.7,77.003 C311.7,78.321 310.622,79.399 309.305,79.399 C307.987,79.399 306.91,78.321 306.91,77.003 L306.91,41.557" id="Fill-15" fill="#666665"></path>
            <path d="M327.988,58.263 L327.988,58.143 C327.988,46.288 336.851,36.468 349.185,36.468 C355.95,36.468 360.262,38.683 364.153,41.916 C364.632,42.335 365.111,42.995 365.111,43.832 C365.111,45.09 363.974,46.167 362.716,46.167 C362.058,46.167 361.519,45.869 361.159,45.629 C357.927,42.755 354.273,40.839 349.125,40.839 C339.844,40.839 332.898,48.383 332.898,58.023 L332.898,58.143 C332.898,67.843 339.903,75.447 349.125,75.447 C354.334,75.447 357.986,73.651 361.579,70.358 C361.938,69.998 362.477,69.699 363.075,69.699 C364.273,69.699 365.351,70.777 365.351,71.974 C365.351,72.693 364.991,73.291 364.572,73.651 C360.441,77.423 355.891,79.818 349.005,79.818 C336.91,79.818 327.988,70.297 327.988,58.263" id="Fill-16" fill="#666665"></path>
            <path d="M372.12,39.282 C372.12,37.965 373.198,36.887 374.455,36.887 C375.772,36.887 376.851,37.965 376.851,39.282 L376.851,55.808 L401.04,55.808 L401.04,39.282 C401.04,37.965 402.118,36.887 403.435,36.887 C404.692,36.887 405.771,37.965 405.771,39.282 L405.771,77.003 C405.771,78.321 404.692,79.399 403.435,79.399 C402.118,79.399 401.04,78.321 401.04,77.003 L401.04,60.239 L376.851,60.239 L376.851,77.003 C376.851,78.321 375.772,79.399 374.455,79.399 C373.198,79.399 372.12,78.321 372.12,77.003 L372.12,39.282" id="Fill-17" fill="#666665"></path>
        </g>
    </g>
</svg>
